X: 9
M: C|
L: 1/8
K: Eb
V: 1
|:\
E3G B3e | cfed e4 |\
g2(eg) f2(df) | ecB=A B4 ::\
V: 2 clef=bass middle=d
|:\
z4 e3g | a2gf g4 |\
e2c2 d2B2 | e2f2 B4 ::\
e4 e4 | B4 B4 |
e2z2 g2e2 | b2B2 e4 :|

